icons/arrow-box-out-top-left.svg

<svg xmlns="http://www.w3.org/2000/svg" width="24" height="24" viewBox="0 0 24 24">
  <path d="M18,6 C19.5976809,6 20.9036609,7.24891996 20.9949073,8.82372721 L21,9 L21,19 C21,20.5976809 19.75108,21.9036609 18.1762728,21.9949073 L18,22 L8,22 C6.40231912,22 5.09633912,20.75108 5.00509269,19.1762728 L5,19 L5,11.6666667 C5,11.1143819 5.44771525,10.6666667 6,10.6666667 C6.51283584,10.6666667 6.93550716,11.0527069 6.99327227,11.5500455 L7,11.6666667 L7,19 C7,19.5128358 7.38604019,19.9355072 7.88337887,19.9932723 L8,20 L18,20 C18.5128358,20 18.9355072,19.6139598 18.9932723,19.1166211 L19,19 L19,9 C19,8.48716416 18.6139598,8.06449284 18.1166211,8.00672773 L18,8 L13,8 C12.4477153,8 12,7.55228475 12,7 C12,6.48716416 12.3860402,6.06449284 12.8833789,6.00672773 L13,6 L18,6 Z M9,2 C9.55228475,2 10,2.44771525 10,3 C10,3.51283584 9.61395981,3.93550716 9.11662113,3.99327227 L9,4 L5.414,3.999 L12.7071068,11.2928932 C13.0976311,11.6834175 13.0976311,12.3165825 12.7071068,12.7071068 C12.3466228,13.0675907 11.7793918,13.0953203 11.3871006,12.7902954 L11.2928932,12.7071068 L4,5.415 L4,9 C4,9.55228475 3.55228475,10 3,10 C2.48716416,10 2.06449284,9.61395981 2.00672773,9.11662113 L2,9 L2,3 L2.00016755,2.98163795 C2.00059932,2.95798023 2.0018656,2.93433491 2.00396641,2.91074993 L2,3 C2,2.94937972 2.00376119,2.89963791 2.01101934,2.85103878 C2.01362808,2.83405099 2.01670217,2.81662474 2.02024007,2.79927424 C2.0246398,2.77725392 2.02983363,2.75556352 2.03572097,2.73416039 C2.04009773,2.71853672 2.04472872,2.70314866 2.04973809,2.68785748 C2.05612249,2.66820232 2.06331574,2.6484208 2.07110396,2.62894148 C2.07819642,2.61120435 2.08567905,2.5939015 2.09367336,2.57677845 C2.10337664,2.5561086 2.11379392,2.53570605 2.12487577,2.51572305 C2.13149883,2.50360556 2.13860692,2.49138689 2.14599545,2.47929125 C2.1617187,2.45372505 2.17849009,2.42886931 2.19631351,2.4048407 C2.20175344,2.39739696 2.20728448,2.39015759 2.21292769,2.38297765 C2.26026655,2.32273092 2.31457489,2.26782388 2.37455101,2.21968877 L2.38519363,2.21126487 L2.38519363,2.21126487 L2.29289322,2.29289322 C2.32828727,2.25749917 2.36567442,2.22531295 2.40469339,2.19633458 C2.42886931,2.17849009 2.45372505,2.1617187 2.47933981,2.14606743 C2.49138689,2.13860692 2.50360556,2.13149883 2.5159379,2.12467117 C2.53570605,2.11379392 2.5561086,2.10337664 2.57690085,2.09365378 C2.5939015,2.08567905 2.61120435,2.07819642 2.62866398,2.07122549 C2.6484208,2.06331574 2.66820232,2.05612249 2.68826359,2.04954668 C2.69460531,2.0475275 2.70137201,2.04539061 2.70815633,2.0433274 L2.72912705,2.03711974 C2.75280168,2.03047332 2.77683175,2.02467654 2.80118228,2.01976438 C2.80870645,2.01833482 2.81613141,2.01692406 2.82356849,2.01559786 L2.84601538,2.01178265 C2.85839634,2.00986911 2.8708523,2.00818267 2.88337887,2.00672773 L2.91578241,2.00353089 C2.93769794,2.00168973 2.95966259,2.00056861 2.98163795,2.00016755 C2.9872016,2.00006024 2.99359377,2 3,2 L9,2 Z"/>
</svg>

<svg xmlns="http://www.w3.org/2000/svg" viewBox="0 0 24 24">
  <path d="M18 6a3 3 0 0 1 3 2.82V19a3 3 0 0 1-2.82 3H8a3 3 0 0 1-3-2.82v-7.51a1 1 0 0 1 2-.12V19a1 1 0 0 0 .88 1H18a1 1 0 0 0 1-.88V9a1 1 0 0 0-.88-1H13a1 1 0 0 1-.12-2H18zM9 2a1 1 0 0 1 .12 2H5.4l7.3 7.3a1 1 0 0 1-1.32 1.49l-.1-.08L4 5.4V9a1 1 0 0 1-2 .12V2.98a1 1 0 0 1 0-.07V3a1 1 0 0 1 .37-.78h.02l-.1.07a1 1 0 0 1 .42-.25h.02a1 1 0 0 1 .07-.02h.05A1 1 0 0 1 2.88 2h.04A1 1 0 0 1 3 2h6z"/>
</svg>
